src/pos-icons/radius-outline.svg

<svg height="24" viewBox="0 0 24 24" width="24" xmlns="http://www.w3.org/2000/svg"><path d="m12 2a10 10 0 0 0 -10 10 10 10 0 0 0 10 10 10 10 0 0 0 10-10 10 10 0 0 0 -10-10m0 18a8 8 0 0 1 -8-8 8 8 0 0 1 8-8 8 8 0 0 1 8 8 8 8 0 0 1 -8 8m4-5v-2h-2.28c-.36.62-1.01 1-1.72 1a2 2 0 0 1 -2-2 2 2 0 0 1 2-2c.71 0 1.36.38 1.72 1h2.28v-2l3 3z"/></svg>

<?xml version="1.0" encoding="UTF-8"?><!DOCTYPE svg PUBLIC "-//W3C//DTD SVG 1.1//EN" "http://www.w3.org/Graphics/SVG/1.1/DTD/svg11.dtd"><svg xmlns="http://www.w3.org/2000/svg" xmlns:xlink="http://www.w3.org/1999/xlink" version="1.1" id="mdi-radius-outline" width="24" height="24" viewBox="0 0 24 24"><path d="M12,2A10,10 0 0,0 2,12A10,10 0 0,0 12,22A10,10 0 0,0 22,12A10,10 0 0,0 12,2M12,20A8,8 0 0,1 4,12A8,8 0 0,1 12,4A8,8 0 0,1 20,12A8,8 0 0,1 12,20M16,15V13H13.72C13.36,13.62 12.71,14 12,14A2,2 0 0,1 10,12A2,2 0 0,1 12,10C12.71,10 13.36,10.38 13.72,11H16V9L19,12L16,15Z" /></svg>
